Sources/FrostedUI/Resources/Icons.xcassets/leaf32.imageset/leaf-32.svg

<svg width="32" height="32" viewBox="0 0 32 32" fill="none" xmlns="http://www.w3.org/2000/svg" data-fui-icon="true">
  <path
    fill-rule="evenodd"
    clip-rule="evenodd"
    d="M28.8651 2.26219C29.1074 2.21786 29.3561 2.2954 29.5303 2.46962C29.7046 2.64384 29.7821 2.89253 29.7378 3.13489L29.7376 3.136L29.7351 3.14941L29.7275 3.19038L29.6978 3.34872C29.6716 3.48722 29.6328 3.69029 29.582 3.94987C29.4803 4.469 29.3305 5.21438 29.1377 6.12159C28.7522 7.93524 28.1941 10.3993 27.5037 12.997C26.8141 15.592 25.9889 18.3348 25.0673 20.7006C24.158 23.0351 23.1145 25.1128 21.947 26.2803C17.6441 30.5832 10.7741 30.7542 6.26705 26.7935L3.53033 29.5303C3.23744 29.8232 2.76256 29.8232 2.46967 29.5303C2.17678 29.2374 2.17678 28.7625 2.46967 28.4696L5.20639 25.7329C1.24571 21.2259 1.4168 14.3558 5.71968 10.0529C6.88717 8.88545 8.96484 7.84199 11.2994 6.93264C13.6652 6.01108 16.4079 5.18582 19.0029 4.49621C21.6007 3.80587 24.0647 3.24771 25.8784 2.86227C26.7856 2.66946 27.531 2.51968 28.0501 2.418C28.3097 2.36716 28.5127 2.32833 28.6512 2.30215L28.8096 2.27245L28.8505 2.26486L28.8651 2.26219ZM20.8864 25.2196C17.1695 28.9365 11.249 29.1067 7.3303 25.7303L13.0607 19.9999H19.25C19.6642 19.9999 20 19.6642 20 19.2499C20 18.8357 19.6642 18.4999 19.25 18.4999H14.5607L23.0303 10.0303C23.3232 9.73738 23.3232 9.2625 23.0303 8.96961C22.7374 8.67672 22.2626 8.67672 21.9697 8.96961L16.75 14.1893V11.4329C16.75 11.0187 16.4142 10.6829 16 10.6829C15.5858 10.6829 15.25 11.0187 15.25 11.4329V15.6893L10.1012 20.8381L10.2496 16.0231C10.2624 15.609 9.93712 15.2631 9.5231 15.2503C9.10909 15.2375 8.76311 15.5628 8.75035 15.9768L8.55275 22.3865L6.26964 24.6696C2.89324 20.7509 3.06347 14.8305 6.78033 11.1136C7.70692 10.187 9.52003 9.23551 11.8438 8.33035C14.1362 7.43739 16.8192 6.62859 19.3882 5.94589C21.9544 5.26392 24.3926 4.71152 26.1902 4.3295C26.9338 4.17147 27.5671 4.04272 28.0538 3.94615C27.9572 4.43284 27.8285 5.06618 27.6705 5.80977C27.2884 7.60734 26.736 10.0455 26.0541 12.6118C25.3714 15.1808 24.5626 17.8637 23.6696 20.1562C22.7644 22.4799 21.8129 24.293 20.8864 25.2196Z"
    fill="currentColor"
  />
</svg>

<svg xmlns="http://www.w3.org/2000/svg" width="32" height="32" fill="none" data-fui-icon="true" viewBox="0 0 32 32"><path fill="currentColor" fill-rule="evenodd" d="M28.865 2.262a.75.75 0 0 1 .873.873v.001l-.003.013-.008.041-.03.159a140.24 140.24 0 0 1-.56 2.773 143 143 0 0 1-1.633 6.875c-.69 2.595-1.515 5.338-2.437 7.704-.909 2.334-1.953 4.412-3.12 5.58-4.303 4.302-11.173 4.473-15.68.513L3.53 29.53a.75.75 0 1 1-1.06-1.06l2.736-2.737c-3.96-4.507-3.79-11.377.514-15.68 1.167-1.168 3.245-2.211 5.58-3.12 2.365-.922 5.108-1.747 7.703-2.437a143 143 0 0 1 9.648-2.194l.159-.03.04-.007zM20.886 25.22c-3.716 3.717-9.637 3.887-13.556.51L13.06 20h6.19a.75.75 0 1 0 0-1.5h-4.69l8.47-8.47a.75.75 0 0 0-1.06-1.06l-5.22 5.22v-2.757a.75.75 0 0 0-1.5 0v4.256l-5.149 5.15.149-4.816a.75.75 0 1 0-1.5-.046l-.197 6.41L6.27 24.67c-3.377-3.92-3.207-9.84.51-13.556.927-.927 2.74-1.878 5.064-2.784 2.292-.893 4.975-1.701 7.544-2.384a142 142 0 0 1 8.666-2 141.91 141.91 0 0 1-2 8.666c-.683 2.569-1.491 5.252-2.384 7.544-.906 2.324-1.857 4.137-2.784 5.064" clip-rule="evenodd"/></svg>
